src/img/clients/PSG.svg

<svg width="553" height="77" viewBox="0 0 553 77" fill="none" xmlns="http://www.w3.org/2000/svg">
<g clip-path="url(#clip0_4258_10189)">
<path d="M72.6 0.5H552.6L518 76.5H38L72.6 0.5ZM58 0.5H63L29 76.5H24L58 0.5ZM46 0.5H51L17 76.5H12L46 0.5ZM34 0.5H39L5 76.5H0L34 0.5Z" fill="#CAD5DD"/>
<path d="M72.8 51.5L84.3 25.3H93.6C97.1 25.3 99.4 25.5001 100.3 25.7001C101.8 26.1001 102.8 27 103.3 28.3C103.8 29.6 103.6 31.3 102.7 33.3C102 35 101.1 36.3001 100 37.4001C98.0351 39.3788 95.5309 40.7352 92.8 41.3C91.4 41.5 89.3 41.6 86.7 41.6H82.9L78.5 51.6H72.8V51.5ZM88.2 29.8L84.9 37.2001H88C90.3 37.2001 92 37 92.8 36.8C93.7 36.5 94.5 36.1 95.2 35.5C95.9 34.9 96.4 34.2 96.7 33.5C97.2 32.5 97.2 31.7 96.9 31.1C96.5 30.5 95.9 30.1 95 29.9L91 29.8H88.2V29.8ZM104.7 51.5H99.2L107.6 32.5H112.6L111.5 35.2001C112.9 34.0001 114.1 33.2001 114.9 32.7001C115.9 32.3001 116.7 32.1 117.6 32.1C118.8 32.1 119.9 32.4 120.8 33.1L117.1 37.4001C116.5 36.9001 115.7 36.6 114.9 36.6C114.2 36.6 113.4 36.8001 112.7 37.2001C112 37.6001 111.3 38.2001 110.5 39.2001C109.8 40.3001 108.7 42.4 107.2 45.6L104.7 51.6V51.5ZM124.5 30L126.5 25.3H132.1L130.1 30H124.5ZM115 51.5L123.4 32.5H128.9L120.5 51.5H115ZM134.1 32.5H139.1L138.1 35.1C140.7 33.1 143.3 32.1 145.8 32.1C147.1 32.1 148.2 32.4001 148.9 32.9001C149.7 33.4001 150.2 34.1 150.3 35.1C151.7 34.1 153 33.4001 154.3 32.9001C155.6 32.4001 156.8 32.1 158 32.1C159.231 32.0332 160.454 32.3475 161.5 33C161.905 33.2784 162.235 33.652 162.462 34.0879C162.688 34.5238 162.805 35.0087 162.8 35.5C162.8 36.3 162.4 37.5001 161.6 39.4001L156.2 51.5H150.7L155.5 40.7001C156.4 38.7001 156.7 37.6 156.5 37C156.4 36.3 155.8 36 154.7 36C153.9 36 153.1 36.2 152.3 36.6C151.3 37 150.6 37.6 149.9 38.5C149.3 39.3 148.6 40.6001 147.8 42.4001L143.8 51.5H138.3L142.9 41.1C143.7 39.3 144.1 38.1 144.1 37.5C144.1 37 144.1 36.6 143.7 36.3C143.5 36.1 143 36 142.3 36C141.4 36 140.6 36.2 139.7 36.6C138.8 37 138.1 37.6001 137.4 38.4001C136.8 39.2001 136.1 40.4 135.3 42.3L131.2 51.5H125.7L134.1 32.5V32.5ZM176.4 45.5L181.4 46.3C180.015 48.0438 178.277 49.4751 176.3 50.5C174.3 51.5 172.3 51.9001 170 51.9001C166.4 51.9001 164.2 50.9001 163.4 48.7001C162.8 47.0001 163.1 44.8001 164.2 42.2001C165.6 39.0001 167.6 36.6 170.2 34.8C172.525 33.0982 175.319 32.1553 178.2 32.1C181.2 32.1 183.3 33.1001 184.2 34.9001C185.2 36.8001 184.8 39.6 183 43.5H169.3C168.7 45 168.6 46.1 169.1 47C169.6 47.8 170.4 48.2001 171.7 48.2001C172.546 48.1737 173.372 47.9328 174.1 47.5C174.9 47.1 175.7 46.5 176.4 45.5V45.5ZM178.9 40.4001C179.6 38.9001 179.6 37.8 179.2 37.1C178.7 36.3 178 36 176.8 36C175.547 35.9923 174.323 36.3769 173.3 37.1C172.2 37.9 171.3 39.1001 170.7 40.4001H178.9ZM197.5 43L203.3 42.5C202.9 44.2 203 45.5 203.7 46.3C204.3 47.1 205.6 47.5 207.3 47.5C209.2 47.5 210.7 47.1 212 46.5C213.093 45.9268 213.97 45.0145 214.5 43.9001C214.8 43.3001 214.9 42.8 214.6 42.3C214.4 41.9 213.9 41.5001 213.1 41.2001L208.9 40C206.2 39.3 204.4 38.5 203.6 37.5C202.5 36 202.3 34.3001 203.3 32.2001C203.9 30.8001 204.8 29.6 206.1 28.4C207.5 27.3 209.1 26.4 210.9 25.8C212.7 25.2 214.7 24.8 216.9 24.8C220.5 24.8 222.9 25.6 224.1 27C225.3 28.5 225.4 30.4 224.4 32.8L218.5 33C218.9 31.7 218.8 30.7 218.2 30.1C217.7 29.6 216.6 29.3 215 29.3C213.3 29.3 211.8 29.6001 210.6 30.2001C209.8 30.6001 209.3 31.2 209 31.8C208.7 32.4 208.7 33.0001 209.1 33.4001C209.6 34.0001 211.1 34.6001 213.6 35.2001C216.2 35.8001 218 36.4 219 37.1C219.498 37.3675 219.934 37.7374 220.279 38.1856C220.624 38.6338 220.869 39.1499 221 39.7001C221.3 40.8001 221 42.2001 220.3 43.9001C219.7 45.4001 218.6 46.8 217.1 48.1C215.592 49.4471 213.821 50.4684 211.9 51.1C210 51.7 207.8 52 205.3 52C201.7 52 199.3 51.2001 198 49.7001C196.7 48.2001 196.5 45.9 197.5 43V43ZM224.8 41.8C226.13 38.9402 228.247 36.5184 230.904 34.8183C233.56 33.1181 236.646 32.2099 239.8 32.2001C242.9 32.2001 245.1 33.0001 246.3 34.9001C247.4 36.8001 247.4 39.1001 246.1 41.9001C244.784 44.8561 242.628 47.3599 239.9 49.1C237.306 50.878 234.245 51.8519 231.1 51.9001C229.1 51.9001 227.5 51.5 226.1 50.8C224.8 50 224 48.8 223.7 47.3C223.5 45.8 223.9 43.9 224.8 41.8ZM230.3 42C229.5 44 229.3 45.3 229.9 46.3C230.4 47.3 231.4 47.8 232.9 47.8C234.3 47.8 235.7 47.3 237.1 46.3C238.5 45.3 239.6 43.9 240.5 42C241.3 40.1 241.5 38.7001 240.9 37.7001C240.4 36.7001 239.4 36.2001 237.9 36.2001C236.6 36.2001 235.1 36.7001 233.7 37.7001C232.3 38.7001 231.2 40.1 230.3 42ZM246.3 51.5L257.8 25.3H263.3L251.7 51.5H246.2H246.3ZM271 51.5L272.3 48.7001C269.944 50.622 267.037 51.7429 264 51.9001C262.6 51.9001 261.4 51.7 260.6 51.1C260.178 50.8564 259.827 50.5069 259.581 50.086C259.336 49.665 259.204 49.1873 259.2 48.7001C259.2 47.7001 259.5 46.3 260.3 44.5L265.6 32.5H271.1L267.3 41.3C266.513 42.8695 265.877 44.5102 265.4 46.2001C265.4 46.8001 265.5 47.2 265.9 47.6C266.3 47.9 266.9 48.1 267.7 48.1C268.7 48.1 269.6 47.9001 270.5 47.4001C271.376 46.9977 272.159 46.419 272.8 45.7001C273.886 44.0698 274.791 42.3262 275.5 40.5L279 32.5H284.5L276.1 51.5H271.1H271ZM299.7 32.5L298 36.5H294.2L290.8 44.2001C290.1 45.7001 289.8 46.6001 289.8 46.9001C289.7 47.1001 289.8 47.4 289.9 47.5C290.1 47.7 290.4 47.8 290.8 47.8C291.3 47.8 292.1 47.6 293.2 47.3L291.9 51.2001C290.4 51.7001 288.9 51.9001 287.3 51.9001C286.448 51.9461 285.595 51.8097 284.8 51.5C284.1 51.2 283.8 50.8 283.5 50.3C283.4 49.8 283.5 49.2 283.7 48.3L285 44.8L288.7 36.5H286.2L288 32.5H290.5L292.1 28.8L298.9 25.8L295.9 32.5H299.7ZM304.7 30L306.7 25.3H312.2L310.2 30H304.7ZM295 51.5L303.4 32.5H308.9L300.5 51.5H295ZM309.2 41.8C310.53 38.9402 312.647 36.5184 315.304 34.8183C317.96 33.1181 321.046 32.2099 324.2 32.2001C327.3 32.2001 329.5 33.0001 330.6 34.9001C331.8 36.8001 331.8 39.1001 330.6 41.9001C329.257 44.8696 327.065 47.3749 324.3 49.1C321.677 50.8968 318.579 51.8716 315.4 51.9001C313.5 51.9001 311.9 51.5 310.5 50.8C309.1 50 308.3 48.8 308.1 47.3C307.9 45.8 308.3 43.9 309.2 41.8V41.8ZM314.7 42C313.9 44 313.7 45.3 314.3 46.3C314.8 47.3 315.8 47.8 317.3 47.8C318.7 47.8 320.1 47.3 321.5 46.3C322.9 45.3 324 43.9 324.9 42C325.7 40.1 325.9 38.7001 325.3 37.7001C324.8 36.7001 323.8 36.2001 322.3 36.2001C321 36.2001 319.5 36.7001 318.1 37.7001C316.7 38.7001 315.6 40.1 314.7 42ZM349.5 51.5H344L348.3 41.8C349.2 39.8 349.7 38.5 349.7 37.8C349.7 37.3 349.6 36.8 349.2 36.5C348.8 36.1 348.2 36 347.5 36C346.481 36.0212 345.478 36.2649 344.563 36.714C343.647 37.1631 342.841 37.8068 342.2 38.6C341.6 39.3 340.8 40.8001 339.9 42.9001L336.1 51.5H330.6L339 32.5H344L342.8 35.3C345.6 33.2 348.4 32.1 351.1 32.1C352.3 32.1 353.3 32.3001 354.1 32.7001C355 33.1001 355.5 33.7001 355.8 34.2001C356 34.9001 356 35.6 355.9 36.3C355.8 37.1 355.4 38.3001 354.7 39.7001L349.5 51.5ZM355.5 46.1L361.4 45.3C361.2 46.3 361.4 47 361.8 47.6C362.3 48.1 363.2 48.3 364.5 48.3C365.9 48.3 367.1 48.1 368 47.6C368.7 47.3 369 46.8 369.3 46.3C369.5 45.9 369.5 45.6 369.3 45.3C369.2 45.1 368.7 44.9 367.8 44.6C363.8 43.8 361.4 42.9001 360.5 42.2001C359.3 41.2001 359.1 39.8001 359.9 37.9001C360.6 36.3001 361.9 34.9 363.9 33.8C365.8 32.7 368.2 32.1 371.2 32.1C374.1 32.1 376 32.5001 377 33.4001C378 34.2001 378.4 35.4 378.2 37.1L372.6 38C372.7 37.3 372.6 36.7 372.1 36.3C371.7 35.9 370.9 35.7001 369.7 35.7001C368.3 35.7001 367.2 35.9 366.4 36.3C365.8 36.5 365.4 36.9 365.3 37.3C365.1 37.6 365.2 38.0001 365.4 38.2001C365.8 38.5001 367.3 39 369.9 39.6C372.6 40.2 374.3 41 375.1 41.8C375.8 42.8 375.9 44 375.1 45.6C374.217 47.4527 372.786 48.9888 371 50C368.575 51.2945 365.847 51.916 363.1 51.8C360.3 51.8 358.3 51.3 357.1 50.3C355.9 49.3 355.5 47.8 355.7 46L355.5 46.1ZM406.1 41.9001L408.1 37.5H420.5L416 47.9001C414.3 48.9001 412.1 49.9001 409.5 50.7001C406.8 51.5001 404.3 52 402 52C399 52 396.6 51.4001 394.9 50.2001C394.066 49.6683 393.369 48.9476 392.865 48.0964C392.361 47.2451 392.065 46.2871 392 45.3C391.9 43.2 392.3 40.8 393.5 38.3C395.969 32.7474 400.535 28.3973 406.2 26.2001C408.4 25.3001 410.9 24.9 413.6 24.9C417.2 24.9 419.6 25.6 421 26.9C422.4 28.3 422.9 30.2 422.4 32.6L416.2 33.6C416.4 32.3 416.1 31.3 415.2 30.6C414.5 29.8 413.2 29.4 411.6 29.4C409.1 29.4 406.8 30.1 404.6 31.6C402.362 33.2602 400.631 35.511 399.6 38.1C398.1 41.2 397.9 43.6 398.6 45.1C399.5 46.7 401.1 47.4001 403.6 47.4001C404.8 47.4001 406.1 47.2 407.6 46.8C408.9 46.4 410.2 45.8001 411.4 45.2001L412.8 41.9001H406.2H406.1ZM424.9 51.5H419.4L427.8 32.5H432.8L431.7 35.2001C433.1 34.0001 434.3 33.2001 435.1 32.7001C436.1 32.3001 436.9 32.1 437.8 32.1C439 32.1 440.1 32.4 441 33.1L437.3 37.4001C436.7 36.9001 435.9 36.6 435.1 36.6C434.4 36.6 433.6 36.8001 432.9 37.2001C432.2 37.6001 431.5 38.2001 430.7 39.2001C430 40.3001 428.9 42.4 427.5 45.6L424.9 51.6V51.5ZM438.2 41.8C439.54 38.9476 441.659 36.5325 444.314 34.8337C446.968 33.135 450.049 32.2219 453.2 32.2001C456.3 32.2001 458.5 33.0001 459.7 34.9001C460.9 36.8001 460.8 39.1001 459.6 41.9001C458.284 44.8561 456.128 47.3599 453.4 49.1C450.749 50.9159 447.613 51.8916 444.4 51.9001C442.6 51.9001 440.9 51.5 439.5 50.8C438.2 50 437.4 48.8 437.1 47.3C436.9 45.8 437.3 43.9 438.2 41.8V41.8ZM443.8 42C442.9 44 442.8 45.3 443.3 46.3C443.8 47.3 444.8 47.8 446.3 47.8C447.7 47.8 449.1 47.3 450.5 46.3C451.9 45.3 453.1 43.9 453.9 42C454.7 40.1 454.9 38.7001 454.3 37.7001C453.8 36.7001 452.8 36.2001 451.4 36.2001C450 36.2001 448.5 36.7001 447.1 37.7001C445.7 38.7001 444.6 40.1 443.8 42V42ZM473.3 51.5L474.6 48.7001C472.217 50.6419 469.271 51.764 466.2 51.9001C464.9 51.9001 463.7 51.7 462.9 51.1C462.478 50.8564 462.127 50.5069 461.881 50.086C461.636 49.665 461.504 49.1873 461.5 48.7001C461.5 47.7001 461.8 46.3 462.6 44.5L467.9 32.5H473.4L469.6 41.3C468.779 42.8658 468.109 44.5066 467.6 46.2001C467.6 46.8001 467.8 47.2 468.2 47.6C468.5 47.9 469.2 48.1 470 48.1C470.97 48.0753 471.924 47.8492 472.802 47.4361C473.68 47.0229 474.463 46.4317 475.1 45.7001C475.7 45.0001 476.6 43.3 477.8 40.5L481.3 32.5H486.8L478.4 51.5H473.4H473.3ZM492.3 32.5H497.5L496.2 35.3C497.3 34.3 498.6 33.6 500 33C501.3 32.4 502.7 32.1 504.1 32.1C506.5 32.1 508.1 33.0001 509.1 34.7001C510.1 36.4001 509.8 38.8001 508.4 41.9001C507.178 44.8496 505.172 47.4086 502.6 49.3C500.2 51.1 497.7 51.9001 495.3 51.9001C494.2 51.9001 493.3 51.7 492.5 51.3C491.658 50.7916 490.967 50.0664 490.5 49.2001L486.2 58.7001H481L492.5 32.5H492.3ZM493.7 41.7001C492.7 43.8001 492.5 45.4001 493 46.4001C493.5 47.4001 494.4 48 495.7 48C497 48 498.3 47.5 499.5 46.6C500.8 45.6 501.9 44.1 502.8 42C503.8 40 503.9 38.5 503.5 37.5C503 36.5 502.2 36.1 500.9 36.1C499.5 36.1 498.2 36.6 496.9 37.5C495.476 38.5881 494.371 40.0386 493.7 41.7001V41.7001Z" fill="white"/>
</g>
<defs>
<clipPath id="clip0_4258_10189">
<rect width="553" height="77" fill="white"/>
</clipPath>
</defs>
</svg>

<svg width="553" height="77" fill="none" xmlns="http://www.w3.org/2000/svg"><path d="M72.6.5h480l-34.6 76H38L72.6.5ZM58 .5h5l-34 76h-5l34-76ZM46 .5h5l-34 76h-5l34-76ZM34 .5h5l-34 76H0l34-76Z" fill="#393572"/><path d="m72.8 51.5 11.5-26.2h9.3c3.5 0 5.8.2 6.7.4 1.5.4 2.5 1.3 3 2.6s.3 3-.6 5c-.7 1.7-1.6 3-2.7 4.1a14.2 14.2 0 0 1-7.2 3.9c-1.4.2-3.5.3-6.1.3h-3.8l-4.4 10h-5.7Zm15.4-21.7-3.3 7.4H88c2.3 0 4-.2 4.8-.4.9-.3 1.7-.7 2.4-1.3.7-.6 1.2-1.3 1.5-2 .5-1 .5-1.8.2-2.4-.4-.6-1-1-1.9-1.2l-4-.1h-2.8Zm16.5 21.7h-5.5l8.4-19h5l-1.1 2.7c1.4-1.2 2.6-2 3.4-2.5 1-.4 1.8-.6 2.7-.6 1.2 0 2.3.3 3.2 1l-3.7 4.3c-.6-.5-1.4-.8-2.2-.8-.7 0-1.5.2-2.2.6-.7.4-1.4 1-2.2 2-.7 1.1-1.8 3.2-3.3 6.4l-2.5 6ZM124.5 30l2-4.7h5.6l-2 4.7h-5.6ZM115 51.5l8.4-19h5.5l-8.4 19H115Zm19.1-19h5l-1 2.6c2.6-2 5.2-3 7.7-3 1.3 0 2.4.3 3.1.8.8.5 1.3 1.2 1.4 2.2 1.4-1 2.7-1.7 4-2.2 1.3-.5 2.5-.8 3.7-.8a6 6 0 0 1 3.5.9 3 3 0 0 1 1.3 2.5c0 .8-.4 2-1.2 3.9l-5.4 12.1h-5.5l4.8-10.8c.9-2 1.2-3.1 1-3.7-.1-.7-.7-1-1.8-1-.8 0-1.6.2-2.4.6-1 .4-1.7 1-2.4 1.9-.6.8-1.3 2.1-2.1 3.9l-4 9.1h-5.5l4.6-10.4c.8-1.8 1.2-3 1.2-3.6 0-.5 0-.9-.4-1.2-.2-.2-.7-.3-1.4-.3-.9 0-1.7.2-2.6.6-.9.4-1.6 1-2.3 1.8-.6.8-1.3 2-2.1 3.9l-4.1 9.2h-5.5l8.4-19Zm42.3 13 5 .8a15.8 15.8 0 0 1-5.1 4.2c-2 1-4 1.4-6.3 1.4-3.6 0-5.8-1-6.6-3.2-.6-1.7-.3-3.9.8-6.5 1.4-3.2 3.4-5.6 6-7.4a14 14 0 0 1 8-2.7c3 0 5.1 1 6 2.8 1 1.9.6 4.7-1.2 8.6h-13.7c-.6 1.5-.7 2.6-.2 3.5.5.8 1.3 1.2 2.6 1.2a5 5 0 0 0 2.4-.7c.8-.4 1.6-1 2.3-2Zm2.5-5.1c.7-1.5.7-2.6.3-3.3-.5-.8-1.2-1.1-2.4-1.1a6 6 0 0 0-3.5 1.1c-1.1.8-2 2-2.6 3.3h8.2Zm18.6 2.6 5.8-.5c-.4 1.7-.3 3 .4 3.8.6.8 1.9 1.2 3.6 1.2 1.9 0 3.4-.4 4.7-1a5.7 5.7 0 0 0 2.5-2.6c.3-.6.4-1.1.1-1.6-.2-.4-.7-.8-1.5-1.1l-4.2-1.2c-2.7-.7-4.5-1.5-5.3-2.5-1.1-1.5-1.3-3.2-.3-5.3.6-1.4 1.5-2.6 2.8-3.8 1.4-1.1 3-2 4.8-2.6 1.8-.6 3.8-1 6-1 3.6 0 6 .8 7.2 2.2 1.2 1.5 1.3 3.4.3 5.8l-5.9.2c.4-1.3.3-2.3-.3-2.9-.5-.5-1.6-.8-3.2-.8-1.7 0-3.2.3-4.4.9-.8.4-1.3 1-1.6 1.6-.3.6-.3 1.2.1 1.6.5.6 2 1.2 4.5 1.8 2.6.6 4.4 1.2 5.4 1.9a4 4 0 0 1 2 2.6c.3 1.1 0 2.5-.7 4.2-.6 1.5-1.7 2.9-3.2 4.2a14.7 14.7 0 0 1-5.2 3c-1.9.6-4.1.9-6.6.9-3.6 0-6-.8-7.3-2.3-1.3-1.5-1.5-3.8-.5-6.7Zm27.3-1.2a16.6 16.6 0 0 1 15-9.6c3.1 0 5.3.8 6.5 2.7 1.1 1.9 1.1 4.2-.2 7a16.5 16.5 0 0 1-6.2 7.2 16 16 0 0 1-8.8 2.8c-2 0-3.6-.4-5-1.1-1.3-.8-2.1-2-2.4-3.5-.2-1.5.2-3.4 1.1-5.5Zm5.5.2c-.8 2-1 3.3-.4 4.3.5 1 1.5 1.5 3 1.5 1.4 0 2.8-.5 4.2-1.5 1.4-1 2.5-2.4 3.4-4.3.8-1.9 1-3.3.4-4.3-.5-1-1.5-1.5-3-1.5-1.3 0-2.8.5-4.2 1.5-1.4 1-2.5 2.4-3.4 4.3Zm16 9.5 11.5-26.2h5.5l-11.6 26.2h-5.5Zm24.7 0 1.3-2.8a14.3 14.3 0 0 1-8.3 3.2c-1.4 0-2.6-.2-3.4-.8a2.8 2.8 0 0 1-1.4-2.4c0-1 .3-2.4 1.1-4.2l5.3-12h5.5l-3.8 8.8a27.7 27.7 0 0 0-1.9 4.9c0 .6.1 1 .5 1.4.4.3 1 .5 1.8.5 1 0 1.9-.2 2.8-.7a7 7 0 0 0 2.3-1.7 27 27 0 0 0 2.7-5.2l3.5-8h5.5l-8.4 19h-5Zm28.7-19-1.7 4h-3.8l-3.4 7.7c-.7 1.5-1 2.4-1 2.7-.1.2 0 .5.1.6.2.2.5.3.9.3.5 0 1.3-.2 2.4-.5l-1.3 3.9c-1.5.5-3 .7-4.6.7a6 6 0 0 1-2.5-.4c-.7-.3-1-.7-1.3-1.2-.1-.5 0-1.1.2-2l1.3-3.5 3.7-8.3h-2.5l1.8-4h2.5l1.6-3.7 6.8-3-3 6.7h3.8Zm5-2.5 2-4.7h5.5l-2 4.7h-5.5ZM295 51.5l8.4-19h5.5l-8.4 19h-5.5Zm14.2-9.7a16.6 16.6 0 0 1 15-9.6c3.1 0 5.3.8 6.4 2.7 1.2 1.9 1.2 4.2 0 7a16.5 16.5 0 0 1-6.3 7.2 16 16 0 0 1-8.9 2.8c-1.9 0-3.5-.4-4.9-1.1-1.4-.8-2.2-2-2.4-3.5-.2-1.5.2-3.4 1.1-5.5Zm5.5.2c-.8 2-1 3.3-.4 4.3.5 1 1.5 1.5 3 1.5 1.4 0 2.8-.5 4.2-1.5 1.4-1 2.5-2.4 3.4-4.3.8-1.9 1-3.3.4-4.3-.5-1-1.5-1.5-3-1.5-1.3 0-2.8.5-4.2 1.5-1.4 1-2.5 2.4-3.4 4.3Zm34.8 9.5h-5.5l4.3-9.7c.9-2 1.4-3.3 1.4-4 0-.5-.1-1-.5-1.3-.4-.4-1-.5-1.7-.5a7 7 0 0 0-5.3 2.6c-.6.7-1.4 2.2-2.3 4.3l-3.8 8.6h-5.5l8.4-19h5l-1.2 2.8c2.8-2.1 5.6-3.2 8.3-3.2 1.2 0 2.2.2 3 .6.9.4 1.4 1 1.7 1.5.2.7.2 1.4.1 2.1-.1.8-.5 2-1.2 3.4l-5.2 11.8Zm6-5.4 5.9-.8c-.2 1 0 1.7.4 2.3.5.5 1.4.7 2.7.7 1.4 0 2.6-.2 3.5-.7.7-.3 1-.8 1.3-1.3.2-.4.2-.7 0-1-.1-.2-.6-.4-1.5-.7-4-.8-6.4-1.7-7.3-2.4-1.2-1-1.4-2.4-.6-4.3.7-1.6 2-3 4-4.1 1.9-1.1 4.3-1.7 7.3-1.7 2.9 0 4.8.4 5.8 1.3 1 .8 1.4 2 1.2 3.7l-5.6.9c.1-.7 0-1.3-.5-1.7-.4-.4-1.2-.6-2.4-.6-1.4 0-2.5.2-3.3.6-.6.2-1 .6-1.1 1-.2.3-.1.7.1.9.4.3 1.9.8 4.5 1.4 2.7.6 4.4 1.4 5.2 2.2.7 1 .8 2.2 0 3.8A10 10 0 0 1 371 50a15.4 15.4 0 0 1-7.9 1.8c-2.8 0-4.8-.5-6-1.5-1.2-1-1.6-2.5-1.4-4.3Zm50.6-4.2 2-4.4h12.4L416 47.9c-1.7 1-3.9 2-6.5 2.8-2.7.8-5.2 1.3-7.5 1.3-3 0-5.4-.6-7.1-1.8a6.3 6.3 0 0 1-2.9-4.9c-.1-2.1.3-4.5 1.5-7a23 23 0 0 1 12.7-12.1c2.2-.9 4.7-1.3 7.4-1.3 3.6 0 6 .7 7.4 2 1.4 1.4 1.9 3.3 1.4 5.7l-6.2 1c.2-1.3-.1-2.3-1-3-.7-.8-2-1.2-3.6-1.2-2.5 0-4.8.7-7 2.2a15 15 0 0 0-5 6.5c-1.5 3.1-1.7 5.5-1 7 .9 1.6 2.5 2.3 5 2.3 1.2 0 2.5-.2 4-.6 1.3-.4 2.6-1 3.8-1.6l1.4-3.3h-6.6Zm18.8 9.6h-5.5l8.4-19h5l-1.1 2.7c1.4-1.2 2.6-2 3.4-2.5 1-.4 1.8-.6 2.7-.6 1.2 0 2.3.3 3.2 1l-3.7 4.3c-.6-.5-1.4-.8-2.2-.8-.7 0-1.5.2-2.2.6-.7.4-1.4 1-2.2 2-.7 1.1-1.8 3.2-3.2 6.4l-2.6 6Zm13.3-9.7a16.7 16.7 0 0 1 15-9.6c3.1 0 5.3.8 6.5 2.7 1.2 1.9 1.1 4.2-.1 7a16.5 16.5 0 0 1-6.2 7.2 16 16 0 0 1-9 2.8c-1.8 0-3.5-.4-4.9-1.1-1.3-.8-2.1-2-2.4-3.5-.2-1.5.2-3.4 1.1-5.5Zm5.6.2c-.9 2-1 3.3-.5 4.3s1.5 1.5 3 1.5c1.4 0 2.8-.5 4.2-1.5 1.4-1 2.6-2.4 3.4-4.3.8-1.9 1-3.3.4-4.3-.5-1-1.5-1.5-2.9-1.5s-2.9.5-4.3 1.5-2.5 2.4-3.3 4.3Zm29.5 9.5 1.3-2.8a14.3 14.3 0 0 1-8.4 3.2c-1.3 0-2.5-.2-3.3-.8a2.8 2.8 0 0 1-1.4-2.4c0-1 .3-2.4 1.1-4.2l5.3-12h5.5l-3.8 8.8a27.7 27.7 0 0 0-2 4.9c0 .6.2 1 .6 1.4.3.3 1 .5 1.8.5a7 7 0 0 0 5.1-2.4c.6-.7 1.5-2.4 2.7-5.2l3.5-8h5.5l-8.4 19h-5Zm19-19h5.2l-1.3 2.8c1.1-1 2.4-1.7 3.8-2.3 1.3-.6 2.7-.9 4.1-.9 2.4 0 4 .9 5 2.6 1 1.7.7 4.1-.7 7.2a17.5 17.5 0 0 1-5.8 7.4c-2.4 1.8-4.9 2.6-7.3 2.6-1.1 0-2-.2-2.8-.6a5.5 5.5 0 0 1-2-2.1l-4.3 9.5H481l11.5-26.2Zm1.4 9.2c-1 2.1-1.2 3.7-.7 4.7s1.4 1.6 2.7 1.6c1.3 0 2.6-.5 3.8-1.4 1.3-1 2.4-2.5 3.3-4.6 1-2 1.1-3.5.7-4.5-.5-1-1.3-1.4-2.6-1.4-1.4 0-2.7.5-4 1.4a10 10 0 0 0-3.2 4.2Z" fill="#fff"/></svg>
